static/fa/svgs/solid/campground.svg

<svg xmlns="http://www.w3.org/2000/svg" viewBox="0 0 576 512"><!--! Font Awesome Free 6.1.1 by @fontawesome - https://fontawesome.com License - https://fontawesome.com/license/free (Icons: CC BY 4.0, Fonts: SIL OFL 1.1, Code: MIT License) Copyright 2022 Fonticons, Inc.--><path d="m328.1 112 235.6 293.4c8 10 12.3 22.3 12.3 35V464c0 26.5-21.5 48-48 48H48c-26.51 0-48-21.5-48-48v-23.6c0-12.7 4.328-25 12.27-35L247 112l-48-60.01c-11.9-13.8-8.8-33.94 5-44.977 13.8-11.04 33.9-8.802 44.1 4.997L288 60.78l39-48.77c11.1-13.799 31.2-16.037 44.1-4.997 14.7 11.037 16.9 31.177 5 44.977l-48 60.01zm79.4 336L288 291.7 168.5 448h239z"/></svg>

<svg xmlns="http://www.w3.org/2000/svg" viewBox="0 0 576 512"><!--! Font Awesome Free 6.1.1 by @fontawesome - https://fontawesome.com License - https://fontawesome.com/license/free (Icons: CC BY 4.0, Fonts: SIL OFL 1.1, Code: MIT License) Copyright 2022 Fonticons, Inc. --><path d="M328.1 112L563.7 405.4C571.7 415.4 576 427.7 576 440.4V464C576 490.5 554.5 512 528 512H48C21.49 512 0 490.5 0 464V440.4C0 427.7 4.328 415.4 12.27 405.4L247 112L199 51.99C187.1 38.19 190.2 18.05 204 7.013C217.8-4.027 237.9-1.789 248.1 12.01L288 60.78L327 12.01C338.1-1.789 358.2-4.027 371.1 7.013C385.8 18.05 388 38.19 376.1 51.99L328.1 112zM407.5 448L288 291.7L168.5 448H407.5z"/></svg>
